X:111
T:Mooncoin Jig, The
R:jig
Z:Transcribed by Dave Marshall
M:6/8
K:Amix
|: cBA AEA | AEA Bcd | cBA Ace | dBG Bcd | 
cBA AEA | AEA Bcd | Ace gfe | dBG Bcd :|
|: cde efg | faf ged | cde efg | a2A Bcd | 
cde efg | afd bge | afd gec | dBG Bcd:|
|: cBA Aaf | ecA Bcd | cBA g2e | dBG Bcd | 
cBA Aaa | Agg Aff | efe efg | dBG Bcd:|
